packages/core/src/svgs/hns.svg

<svg width="24" height="24" viewBox="0 0 24 24" fill="none" xmlns="http://www.w3.org/2000/svg">
<g clip-path="url(#clip0_31_11467)">
<path d="M0 0H24V24H0V0Z" fill="url(#paint0_linear_31_11467)"/>
<path d="M16.9821 9.85735L16.092 8.10235L17.8165 8.10321C17.8628 8.10321 17.9164 8.13235 17.9417 8.17178C17.9691 8.21592 18.8571 9.85735 18.8571 9.85735H16.9821ZM13.7927 18.7858C13.7511 18.8574 13.6967 18.8574 13.6791 18.8574H12.9745L11.9155 18.8569L14.925 13.7244C14.9704 13.6459 14.9721 13.4878 14.925 13.4106C14.901 13.3722 14.8676 13.3405 14.8279 13.3187C14.7882 13.2969 14.7436 13.2856 14.6983 13.2859H9.67325L8.89496 12.0002H15.6278C15.6651 12.0002 15.7358 11.9972 15.7693 11.9831C15.8018 11.9685 15.8305 11.9325 15.8593 11.8819L16.9821 10.2859H18.8361L13.7927 18.7858ZM11.4591 18.6066L11.238 18.2582C11.0095 17.8965 10.7803 17.5352 10.5505 17.1744C10.5368 17.1529 10.5308 17.1015 10.5591 17.0518C10.6251 16.9391 12.2425 14.2455 12.5447 13.7244H14.3554L11.4591 18.6066ZM8.54054 15.5565L7.64954 13.9515L8.54097 12.4382L9.38397 13.9511L8.54097 15.5565H8.54054ZM7.16311 15.8976H6.18254C6.15797 15.8964 6.13402 15.8896 6.11248 15.8777C6.09095 15.8658 6.0724 15.8492 6.05825 15.8291L5.14282 14.1431H7.01782L7.90754 15.8976H7.16311ZM10.2073 5.21507C10.2493 5.14307 10.3033 5.14307 10.3204 5.14307H12.0921L9.34454 9.85307C9.29654 9.93449 9.26782 10.0901 9.32868 10.1852C9.36082 10.2358 9.44739 10.2859 9.48082 10.2859H14.2277C14.3481 10.4865 15.153 11.5716 15.153 11.5716H8.54097C8.54354 11.5716 8.53797 11.5716 8.54097 11.5716C8.49286 11.5734 8.44596 11.5872 8.40461 11.6118C8.36326 11.6365 8.32879 11.6711 8.30439 11.7126L7.01354 13.7145H5.16425C5.97168 12.3272 10.1537 5.30721 10.2077 5.21507H10.2073ZM12.5447 5.39935L12.7093 5.65864C12.9555 6.04808 13.2022 6.43722 13.4494 6.82607C13.4631 6.8475 13.4695 6.89892 13.4408 6.94864L11.8191 9.85307H10.0093L12.5443 5.40021L12.5447 5.39935ZM15.6283 8.42892L16.4297 9.92464L15.6283 11.2369L14.7917 9.92421L15.6283 8.42892Z" fill="white"/>
</g>
<defs>
<linearGradient id="paint0_linear_31_11467" x1="4.46486" y1="4.16229" x2="29.2059" y2="32.5787" gradientUnits="userSpaceOnUse">
<stop stop-color="#1A1E21"/>
<stop offset="1" stop-color="#06060A"/>
</linearGradient>
<clipPath id="clip0_31_11467">
<rect width="24" height="24" fill="white"/>
</clipPath>
</defs>
</svg>

<svg xmlns="http://www.w3.org/2000/svg" width="24" height="24" fill="none" viewBox="0 0 24 24"><g clip-path="url(#a)"><path fill="url(#b)" d="M0 0h24v24H0z"/><path fill="#fff" d="m16.982 9.857-.89-1.755 1.725.001c.046 0 .1.03.125.069.027.044.915 1.685.915 1.685zm-3.19 8.929c-.04.071-.095.071-.113.071h-1.764l3.01-5.133a.37.37 0 0 0 0-.313.27.27 0 0 0-.227-.125H9.673L8.895 12h6.733a.5.5 0 0 0 .141-.017q.049-.023.09-.101l1.123-1.596h1.854zm-2.333-.18-.221-.348-.687-1.084c-.014-.021-.02-.072.008-.122.066-.113 1.684-2.806 1.986-3.328h1.81zm-2.918-3.05-.891-1.604.891-1.514.843 1.513zm-1.378.342h-.98a.16.16 0 0 1-.125-.069l-.915-1.686h1.875l.89 1.755zm3.044-10.683c.042-.072.096-.072.113-.072h1.772l-2.747 4.71c-.048.081-.077.237-.016.332.032.05.118.1.152.1h4.747c.12.201.925 1.287.925 1.287H8.541c.003 0-.003 0 0 0a.29.29 0 0 0-.237.14l-1.29 2.002h-1.85c.808-1.387 4.99-8.407 5.044-8.499m2.338.184.164.26.74 1.167c.014.022.02.073-.008.123l-1.622 2.904h-1.81L12.544 5.4m3.083 3.03.802 1.496-.802 1.312-.836-1.313z"/></g><defs><linearGradient id="b" x1="4.465" x2="29.206" y1="4.162" y2="32.579" gradientUnits="userSpaceOnUse"><stop stop-color="#1A1E21"/><stop offset="1" stop-color="#06060A"/></linearGradient><clipPath id="a"><path fill="#fff" d="M0 0h24v24H0z"/></clipPath></defs></svg>
